images_elementary_svg/cmd/32/fontworksameletterheights.svg

<svg height="32" width="32" xmlns="http://www.w3.org/2000/svg" xmlns:xlink="http://www.w3.org/1999/xlink"><radialGradient id="a" cx="4.333" cy="288.64401" gradientTransform="matrix(-8.94376 .3016 -.2982 -8.84088 110.184 2552.074)" gradientUnits="userSpaceOnUse" r="2.799"><stop offset="0" stop-color="#737373"/><stop offset=".262" stop-color="#636363"/><stop offset=".705" stop-color="#4b4b4b"/><stop offset="1" stop-color="#3f3f3f"/></radialGradient><linearGradient id="b" gradientTransform="matrix(.96607 0 0 1.03513 .588429 8.013221)" gradientUnits="userSpaceOnUse" x1="19.157" x2="18.966999" xlink:href="#a" y1="7.213" y2="19.1"/><linearGradient id="c" gradientUnits="userSpaceOnUse" x1="5.168" x2="6.595" xlink:href="#a" y1="4.404" y2="21.386999"/><linearGradient id="d" gradientUnits="userSpaceOnUse" x1="187.81599" x2="187.172" xlink:href="#e" y1="489.547" y2="489.547"/><linearGradient id="e"><stop offset="0" stop-color="#fcaf3e"/><stop offset="1" stop-color="#fcaf3e" stop-opacity="0"/></linearGradient><linearGradient id="f" gradientUnits="userSpaceOnUse" x1="187.60899" x2="186.937" xlink:href="#g" y1="489.35901" y2="489.35901"/><linearGradient id="g"><stop offset="0" stop-color="#ce5c00"/><stop offset="1" stop-color="#ce5c00" stop-opacity="0"/></linearGradient><linearGradient id="h" gradientTransform="matrix(-1 0 0 -1 396 981)" gradientUnits="userSpaceOnUse" x1="187.81599" x2="187.172" xlink:href="#e" y1="489.547" y2="489.547"/><linearGradient id="i" gradientTransform="matrix(-1 0 0 -1 396 981)" gradientUnits="userSpaceOnUse" x1="187.60899" x2="186.937" xlink:href="#g" y1="489.35901" y2="489.35901"/><g transform="matrix(1.33333 0 0 1.33333 .00004 -11.333586)"><path d="m20.400593 28.376298-.478205-1.318755h-.06473q-.623115.84156-1.287771 1.171767-.654996.32089-1.716706.32089-1.304195 0-2.055797-.79705-.745806-.800155-.745806-2.275216 0-1.542343 1.004712-2.273145 1.011476-.737013 3.043121-.814647l1.571796-.05383v-.424403q0-1.475061-1.40853-1.475061-1.084897 0-2.550425.703889l-.818261-1.788705q1.563101-.876755 3.465293-.876755 1.822008 0 2.793874.850877.971867.848806.971867 2.585755v6.463351h-1.724435zm-.729383-4.494534-.95641.03519q-1.075236.03416-1.601744.416123-.526508.382998-.526508 1.162451 0 1.11794 1.197927 1.11794.859802 0 1.368921-.527916.517814-.529987.517814-1.407777v-.79705z" fill="url(#b)" stroke="#000" stroke-linejoin="round" stroke-opacity=".49" stroke-width=".750002"/><path d="m10.06 26.275h-6.04l-.762 2.277h-1.814l4.176-11.144h2.91l4.026 11.144h-1.758zm-5.176-1.797h4.262l-2.068-5.692z" fill="#8c8c8c"/><g stroke-linejoin="round" stroke-width=".750002" transform="translate(0 8)"><path d="m10.06 18.275h-6.04l-.762 2.277h-1.814l4.176-11.144h2.91l4.026 11.144h-1.758zm-5.176-1.797h4.262l-2.068-5.692z" fill="url(#c)" stroke="#000" stroke-linecap="round" stroke-opacity=".49"/><g stroke-miterlimit="0"><path d="m10.500004 4.6252211h3l-.000008 1.5000037h-3z" fill="#fcaf3e" stroke="#ce5c00"/><path d="m197.5 491.12522h-11v-1.5h11" fill="url(#d)" stroke="url(#f)" transform="translate(-186 -485)"/><path d="m198.5 489.62522h11v1.5h-11" fill="url(#h)" stroke="url(#i)" transform="translate(-186 -485)"/></g></g></g></svg>

<?xml version="1.0" encoding="UTF-8" standalone="no"?>
<svg
   xmlns:dc="http://purl.org/dc/elements/1.1/"
   xmlns:cc="http://creativecommons.org/ns#"
   xmlns:rdf="http://www.w3.org/1999/02/22-rdf-syntax-ns#"
   xmlns:svg="http://www.w3.org/2000/svg"
   xmlns="http://www.w3.org/2000/svg"
   xmlns:xlink="http://www.w3.org/1999/xlink"
   xmlns:sodipodi="http://sodipodi.sourceforge.net/DTD/sodipodi-0.dtd"
   xmlns:inkscape="http://www.inkscape.org/namespaces/inkscape"
   height="32"
   width="32"
   version="1.1"
   id="svg43"
   sodipodi:docname="fontworksameletterheights.svg"
   inkscape:version="0.92.3 (unknown)">
  <metadata
     id="metadata49">
    <rdf:RDF>
      <cc:Work
         rdf:about="">
        <dc:format>image/svg+xml</dc:format>
        <dc:type
           rdf:resource="http://purl.org/dc/dcmitype/StillImage" />
        <dc:title></dc:title>
      </cc:Work>
    </rdf:RDF>
  </metadata>
  <defs
     id="defs47" />
  <sodipodi:namedview
     pagecolor="#ffffff"
     bordercolor="#666666"
     borderopacity="1"
     objecttolerance="10"
     gridtolerance="10"
     guidetolerance="10"
     inkscape:pageopacity="0"
     inkscape:pageshadow="2"
     inkscape:window-width="1366"
     inkscape:window-height="706"
     id="namedview45"
     showgrid="true"
     inkscape:zoom="9.8333333"
     inkscape:cx="0.14874402"
     inkscape:cy="28.54429"
     inkscape:window-x="0"
     inkscape:window-y="0"
     inkscape:window-maximized="1"
     inkscape:current-layer="svg43">
    <inkscape:grid
       type="xygrid"
       id="grid856"
       spacingx="0.5"
       spacingy="0.5" />
  </sodipodi:namedview>
  <radialGradient
     id="a"
     cx="4.3330002"
     cy="288.64401"
     gradientTransform="matrix(-8.94376,0.3016,-0.2982,-8.84088,110.184,2552.074)"
     gradientUnits="userSpaceOnUse"
     r="2.799">
    <stop
       offset="0"
       stop-color="#737373"
       id="stop2" />
    <stop
       offset=".262"
       stop-color="#636363"
       id="stop4" />
    <stop
       offset=".705"
       stop-color="#4b4b4b"
       id="stop6" />
    <stop
       offset="1"
       stop-color="#3f3f3f"
       id="stop8" />
  </radialGradient>
  <linearGradient
     id="b"
     gradientUnits="userSpaceOnUse"
     x1="19.157"
     x2="18.966999"
     xlink:href="#a"
     y1="7.2129998"
     y2="19.1"
     gradientTransform="matrix(0.96607,0,0,1.03513,0.58842931,8.0132214)" />
  <linearGradient
     id="c"
     gradientUnits="userSpaceOnUse"
     x1="5.1680002"
     x2="6.5949998"
     xlink:href="#a"
     y1="4.4039998"
     y2="21.386999" />
  <linearGradient
     id="d"
     gradientUnits="userSpaceOnUse"
     x1="187.81599"
     x2="187.172"
     xlink:href="#e"
     y1="489.547"
     y2="489.547" />
  <linearGradient
     id="e">
    <stop
       offset="0"
       stop-color="#fcaf3e"
       id="stop14" />
    <stop
       offset="1"
       stop-color="#fcaf3e"
       stop-opacity="0"
       id="stop16" />
  </linearGradient>
  <linearGradient
     id="f"
     gradientUnits="userSpaceOnUse"
     x1="187.60899"
     x2="186.937"
     xlink:href="#g"
     y1="489.35901"
     y2="489.35901" />
  <linearGradient
     id="g">
    <stop
       offset="0"
       stop-color="#ce5c00"
       id="stop20" />
    <stop
       offset="1"
       stop-color="#ce5c00"
       stop-opacity="0"
       id="stop22" />
  </linearGradient>
  <linearGradient
     id="h"
     gradientTransform="rotate(180,198,490.5)"
     gradientUnits="userSpaceOnUse"
     x1="187.81599"
     x2="187.172"
     xlink:href="#e"
     y1="489.547"
     y2="489.547" />
  <linearGradient
     id="i"
     gradientTransform="rotate(180,198,490.5)"
     gradientUnits="userSpaceOnUse"
     x1="187.60899"
     x2="186.937"
     xlink:href="#g"
     y1="489.35901"
     y2="489.35901" />
  <g
     id="g866"
     transform="matrix(1.33333,0,0,1.33333,4e-5,-11.333586)">
    <path
       style="fill:url(#b);stroke:#000000;stroke-width:0.75000191;stroke-linejoin:round;stroke-miterlimit:4;stroke-dasharray:none;stroke-opacity:0.49000005"
       inkscape:connector-curvature="0"
       id="path27"
       d="m 20.400593,28.376298 -0.478205,-1.318755 h -0.06473 q -0.623115,0.84156 -1.287771,1.171767 -0.654996,0.32089 -1.716706,0.32089 -1.304195,0 -2.055797,-0.79705 -0.745806,-0.800155 -0.745806,-2.275216 0,-1.542343 1.004712,-2.273145 1.011476,-0.737013 3.043121,-0.814647 l 1.571796,-0.05383 v -0.424403 q 0,-1.475061 -1.40853,-1.475061 -1.084897,0 -2.550425,0.703889 l -0.818261,-1.788705 q 1.563101,-0.876755 3.465293,-0.876755 1.822008,0 2.793874,0.850877 0.971867,0.848806 0.971867,2.585755 V 28.37526 H 20.40059 Z m -0.729383,-4.494534 -0.95641,0.03519 q -1.075236,0.03416 -1.601744,0.416123 -0.526508,0.382998 -0.526508,1.162451 0,1.11794 1.197927,1.11794 0.859802,0 1.368921,-0.527916 0.517814,-0.529987 0.517814,-1.407777 v -0.79705 z" />
    <path
       style="fill:#8c8c8c"
       inkscape:connector-curvature="0"
       id="path29"
       d="M 10.06,26.275 H 4.02 L 3.258,28.552 H 1.444 L 5.62,17.408 h 2.91 l 4.026,11.144 H 10.798 Z M 4.884,24.478 H 9.146 L 7.078,18.786 Z" />
    <g
       transform="translate(0,8)"
       style="stroke-linejoin:round"
       id="g41">
      <path
         style="fill:url(#c);stroke:#000000;stroke-width:0.75000188;stroke-linecap:round;stroke-opacity:0.49000005;stroke-miterlimit:4;stroke-dasharray:none"
         inkscape:connector-curvature="0"
         id="path31"
         d="M 10.06,18.275 H 4.02 L 3.258,20.552 H 1.444 L 5.62,9.408 h 2.91 l 4.026,11.144 H 10.798 Z M 4.884,16.478 H 9.146 L 7.078,10.786 Z" />
      <g
         style="stroke-miterlimit:0"
         id="g39"
         stroke-miterlimit="0">
        <path
           style="fill:#fcaf3e;stroke:#ce5c00;stroke-width:0.75000191;stroke-miterlimit:0;stroke-dasharray:none"
           inkscape:connector-curvature="0"
           id="path33"
           d="m 10.500004,4.6252211 h 3 l -8e-6,1.5000037 h -3 z"
           sodipodi:nodetypes="ccccc" />
        <path
           style="fill:url(#d);stroke:url(#f);stroke-width:0.75000191;stroke-miterlimit:0;stroke-dasharray:none"
           inkscape:connector-curvature="0"
           id="path35"
           transform="translate(-186,-485)"
           d="m 197.5,491.12522 h -11 l 0,-1.5 h 11"
           sodipodi:nodetypes="cccc" />
        <path
           style="fill:url(#h);stroke:url(#i);stroke-width:0.75000191;stroke-miterlimit:0;stroke-dasharray:none"
           inkscape:connector-curvature="0"
           id="path37"
           transform="translate(-186,-485)"
           d="m 198.5,489.62522 h 11 l 0,1.5 h -11"
           sodipodi:nodetypes="cccc" />
      </g>
    </g>
  </g>
</svg>
